icons/src/svg/contact.svg

<svg width="32" height="32" viewBox="0 0 32 32" fill="none" xmlns="http://www.w3.org/2000/svg">
<path fill-rule="evenodd" clip-rule="evenodd" d="M4 4C4 2.89543 4.89543 2 6 2H26C27.1046 2 28 2.89543 28 4V28C28 29.1046 27.1046 30 26 30H6C4.89543 30 4 29.1046 4 28V4ZM26 4H6V28H26V4Z" fill="#0D0F13"/>
<path fill-rule="evenodd" clip-rule="evenodd" d="M16 10C14.8954 10 14 10.8954 14 12C14 13.1046 14.8954 14 16 14C17.1046 14 18 13.1046 18 12C18 10.8954 17.1046 10 16 10ZM12 12C12 9.79086 13.7909 8 16 8C18.2091 8 20 9.79086 20 12C20 14.2091 18.2091 16 16 16C13.7909 16 12 14.2091 12 12ZM13 20C11.8954 20 11 20.8954 11 22V23C11 23.5523 10.5523 24 10 24C9.44772 24 9 23.5523 9 23V22C9 19.7909 10.7909 18 13 18H19C21.2091 18 23 19.7909 23 22V23C23 23.5523 22.5523 24 22 24C21.4477 24 21 23.5523 21 23V22C21 20.8954 20.1046 20 19 20H13Z" fill="#0D0F13"/>
</svg>

<svg fill="none" xmlns="http://www.w3.org/2000/svg" viewBox="0 0 32 32">
  <path fill-rule="evenodd" clip-rule="evenodd" d="M4 4a2 2 0 0 1 2-2h20a2 2 0 0 1 2 2v24a2 2 0 0 1-2 2H6a2 2 0 0 1-2-2V4Zm22 0H6v24h20V4Z" fill="currentColor"/>
  <path fill-rule="evenodd" clip-rule="evenodd" d="M16 10a2 2 0 1 0 0 4 2 2 0 0 0 0-4Zm-4 2a4 4 0 1 1 8 0 4 4 0 0 1-8 0Zm1 8a2 2 0 0 0-2 2v1a1 1 0 1 1-2 0v-1a4 4 0 0 1 4-4h6a4 4 0 0 1 4 4v1a1 1 0 1 1-2 0v-1a2 2 0 0 0-2-2h-6Z" fill="currentColor"/>
</svg>
